X:5301
T:Punchanello's Hornpipe, or the Three Rusty Swords
O:england
M:3/2
L:1/8
K:G
GABc d2 G2 d2 G2 | F2 A4 c2 B2 A2 | GABc d2 G2 B4 | D2 G4 B2 A2 G2 ||
g4   f4    e4    | f2 d4 f2 e2 d2 | c4   B4    A4 | B2 G4 B2 A2 G2 |]
